app/assets/images/icons/active/camping.svg

<?xml version="1.0" encoding="UTF-8" standalone="no"?>
<svg width="32px" height="232px" viewBox="0 0 32 232" version="1.1" xmlns="http://www.w3.org/2000/svg" xmlns:xlink="http://www.w3.org/1999/xlink" xmlns:sketch="http://www.bohemiancoding.com/sketch/ns">
    <title>camping</title>
    <description>Created with Sketch (http://www.bohemiancoding.com/sketch)</description>
    <defs></defs>
    <g id="Hotel-facilities" stroke="none" stroke-width="1" fill="none" fill-rule="evenodd" sketch:type="MSPage">
        <path d="M28.7608276,149.000152 L3.23622614,149.000152 C2.00468131,149.000152 1,148.098152 1,146.996152 C1,146.151152 1.57354241,145.436152 2.39260811,145.129152 L1.8475464,143.942152 C1.67862638,143.578152 1.66291289,143.162152 1.8053164,142.782152 C1.9339706,142.414152 2.20404622,142.114152 2.55367139,141.953152 C3.26667103,141.619152 4.17805349,141.968152 4.50607261,142.693152 L4.82819917,143.408152 L14.7581432,130.609152 C15.4102531,129.781152 16.5868007,129.803152 17.2104298,130.639152 L26.7927129,143.385152 L27.1187678,142.692152 C27.4418765,141.970152 28.3404917,141.619152 29.0564376,141.953152 C29.4070449,142.118152 29.6761384,142.414152 29.8126494,142.786152 C29.9501424,143.170152 29.9334468,143.578152 29.7723835,143.942152 L29.2675877,145.033152 C30.2555734,145.240152 31,146.035152 31,146.996152 C31,148.098152 29.9963008,149.000152 28.7608276,149.000152 M15.9857596,144.850152 L22.9104986,144.850152 L15.9857596,135.309152 L15.9857596,144.850152" id="camping--white" fill="#206FAC" sketch:type="MSShapeGroup"></path>
        <path d="M28.7608276,109.000152 L3.23622614,109.000152 C2.00468131,109.000152 1,108.098152 1,106.996152 C1,106.151152 1.57354241,105.436152 2.39260811,105.129152 L1.8475464,103.942152 C1.67862638,103.578152 1.66291289,103.162152 1.8053164,102.782152 C1.9339706,102.414152 2.20404622,102.114152 2.55367139,101.953152 C3.26667103,101.619152 4.17805349,101.968152 4.50607261,102.693152 L4.82819917,103.408152 L14.7581432,90.6091523 C15.4102531,89.7811523 16.5868007,89.8031523 17.2104298,90.6391523 L26.7927129,103.385152 L27.1187678,102.692152 C27.4418765,101.970152 28.3404917,101.619152 29.0564376,101.953152 C29.4070449,102.118152 29.6761384,102.414152 29.8126494,102.786152 C29.9501424,103.170152 29.9334468,103.578152 29.7723835,103.942152 L29.2675877,105.033152 C30.2555734,105.240152 31,106.035152 31,106.996152 C31,108.098152 29.9963008,109.000152 28.7608276,109.000152 M15.9857596,104.850152 L22.9104986,104.850152 L15.9857596,95.3091523 L15.9857596,104.850152" id="camping--white" fill="#FFFFFF" sketch:type="MSShapeGroup"></path>
        <path d="M28.7608276,69.0001523 L3.23622614,69.0001523 C2.00468131,69.0001523 1,68.0981523 1,66.9961523 C1,66.1511523 1.57354241,65.4361523 2.39260811,65.1291523 L1.8475464,63.9421523 C1.67862638,63.5781523 1.66291289,63.1621523 1.8053164,62.7821523 C1.9339706,62.4141523 2.20404622,62.1141523 2.55367139,61.9531523 C3.26667103,61.6191523 4.17805349,61.9681523 4.50607261,62.6931523 L4.82819917,63.4081523 L14.7581432,50.6091523 C15.4102531,49.7811523 16.5868007,49.8031523 17.2104298,50.6391523 L26.7927129,63.3851523 L27.1187678,62.6921523 C27.4418765,61.9701523 28.3404917,61.6191523 29.0564376,61.9531523 C29.4070449,62.1181523 29.6761384,62.4141523 29.8126494,62.7861523 C29.9501424,63.1701523 29.9334468,63.5781523 29.7723835,63.9421523 L29.2675877,65.0331523 C30.2555734,65.2401523 31,66.0351523 31,66.9961523 C31,68.0981523 29.9963008,69.0001523 28.7608276,69.0001523 M15.9857596,64.8501523 L22.9104986,64.8501523 L15.9857596,55.3091523 L15.9857596,64.8501523" id="camping--light-grey" fill="#67737B" sketch:type="MSShapeGroup"></path>
        <path d="M28.7608276,29.0001523 L3.23622614,29.0001523 C2.00468131,29.0001523 1,28.0981523 1,26.9961523 C1,26.1511523 1.57354241,25.4361523 2.39260811,25.1291523 L1.8475464,23.9421523 C1.67862638,23.5781523 1.66291289,23.1621523 1.8053164,22.7821523 C1.9339706,22.4141523 2.20404622,22.1141523 2.55367139,21.9531523 C3.26667103,21.6191523 4.17805349,21.9681523 4.50607261,22.6931523 L4.82819917,23.4081523 L14.7581432,10.6091523 C15.4102531,9.78115233 16.5868007,9.80315233 17.2104298,10.6391523 L26.7927129,23.3851523 L27.1187678,22.6921523 C27.4418765,21.9701523 28.3404917,21.6191523 29.0564376,21.9531523 C29.4070449,22.1181523 29.6761384,22.4141523 29.8126494,22.7861523 C29.9501424,23.1701523 29.9334468,23.5781523 29.7723835,23.9421523 L29.2675877,25.0331523 C30.2555734,25.2401523 31,26.0351523 31,26.9961523 C31,28.0981523 29.9963008,29.0001523 28.7608276,29.0001523 M15.9857596,24.8501523 L22.9104986,24.8501523 L15.9857596,15.3091523 L15.9857596,24.8501523" id="camping--dark-grey" fill="#3A434E" sketch:type="MSShapeGroup"></path>
    </g>
</svg>

<svg width="32" height="232" viewBox="0 0 32 232" xmlns="http://www.w3.org/2000/svg" xmlns:sketch="http://www.bohemiancoding.com/sketch/ns"><title>camping</title><g sketch:type="MSPage" fill="none"><path d="M28.761 149h-25.525c-1.232 0-2.236-.902-2.236-2.004 0-.845.574-1.56 1.393-1.867l-.545-1.187c-.169-.364-.185-.78-.042-1.16.129-.368.399-.668.748-.829.713-.334 1.624.015 1.952.74l.322.715 9.93-12.799c.652-.828 1.829-.806 2.452.03l9.582 12.746.326-.693c.323-.722 1.222-1.073 1.938-.739.351.165.62.461.756.833.137.384.121.792-.04 1.156l-.505 1.091c.988.207 1.732 1.002 1.732 1.963 0 1.102-1.004 2.004-2.239 2.004m-12.775-4.15h6.925l-6.925-9.541v9.541" id="camping--white" fill="#206FAC" sketch:type="MSShapeGroup"/><path d="M28.761 109h-25.525c-1.232 0-2.236-.902-2.236-2.004 0-.845.574-1.56 1.393-1.867l-.545-1.187c-.169-.364-.185-.78-.042-1.16.129-.368.399-.668.748-.829.713-.334 1.624.015 1.952.74l.322.715 9.93-12.799c.652-.828 1.829-.806 2.452.03l9.582 12.746.326-.693c.323-.722 1.222-1.073 1.938-.739.351.165.62.461.756.833.137.384.121.792-.04 1.156l-.505 1.091c.988.207 1.732 1.002 1.732 1.963 0 1.102-1.004 2.004-2.239 2.004m-12.775-4.15h6.925l-6.925-9.541v9.541" fill="#fff" sketch:type="MSShapeGroup"/><path d="M28.761 69h-25.525c-1.232 0-2.236-.902-2.236-2.004 0-.845.574-1.56 1.393-1.867l-.545-1.187c-.169-.364-.185-.78-.042-1.16.129-.368.399-.668.748-.829.713-.334 1.624.015 1.952.74l.322.715 9.93-12.799c.652-.828 1.829-.806 2.452.03l9.582 12.746.326-.693c.323-.722 1.222-1.073 1.938-.739.351.165.62.461.756.833.137.384.121.792-.04 1.156l-.505 1.091c.988.207 1.732 1.002 1.732 1.963 0 1.102-1.004 2.004-2.239 2.004m-12.775-4.15h6.925l-6.925-9.541v9.541" fill="#67737B" sketch:type="MSShapeGroup"/><path d="M28.761 29h-25.525c-1.232 0-2.236-.902-2.236-2.004 0-.845.574-1.56 1.393-1.867l-.545-1.187c-.169-.364-.185-.78-.042-1.16.129-.368.399-.668.748-.829.713-.334 1.624.015 1.952.74l.322.715 9.93-12.799c.652-.828 1.829-.806 2.452.03l9.582 12.746.326-.693c.323-.722 1.222-1.073 1.938-.739.351.165.62.461.756.833.137.384.121.792-.04 1.156l-.505 1.091c.988.207 1.732 1.002 1.732 1.963 0 1.102-1.004 2.004-2.239 2.004m-12.775-4.15h6.925l-6.925-9.541v9.541" fill="#3A434E" sketch:type="MSShapeGroup"/></g></svg>
